epam-assets/icon-sources/18/editor-chart-line_multiline.svg

<svg width="18" height="18" viewBox="0 0 18 18" fill="none" xmlns="http://www.w3.org/2000/svg">
<g id="18/editor-chart-line_multiline">
<path id="icon" d="M2.55 13.8749L1.5 12.7874L7.125 7.16235L10.125 10.1624L12.3 7.72485C11.6625 6.97485 10.9125 6.3811 10.05 5.9436C9.1875 5.5061 8.2375 5.28735 7.2 5.28735C6.3125 5.28735 5.475 5.4531 4.6875 5.7846C3.9 6.1156 3.1875 6.56235 2.55 7.12485L1.5 6.03735C2.275 5.33735 3.14375 4.78735 4.10625 4.38735C5.06875 3.98735 6.1 3.78735 7.2 3.78735C8.425 3.78735 9.55625 4.0341 10.5938 4.5276C11.6313 5.0216 12.5375 5.71235 13.3125 6.59985L15.45 4.16235L16.5 5.24985L14.25 7.79985C14.6625 8.46235 14.997 9.1811 15.2535 9.9561C15.5095 10.7311 15.675 11.5499 15.75 12.4124H14.25C14.175 11.7874 14.047 11.1904 13.866 10.6214C13.6845 10.0529 13.45 9.51235 13.1625 8.99985L10.2 12.3374L7.125 9.29985L2.55 13.8749Z" fill="#6C6F80"/>
</g>
</svg>

<svg xmlns="http://www.w3.org/2000/svg" width="18" height="18" fill="none" viewBox="0 0 18 18">
  <path fill="#6C6F80" d="M2.55 13.875 1.5 12.787l5.625-5.625 3 3L12.3 7.725a7.208 7.208 0 0 0-2.25-1.781c-.863-.438-1.813-.657-2.85-.657a6.41 6.41 0 0 0-2.513.498c-.787.33-1.5.777-2.137 1.34L1.5 6.037a9.032 9.032 0 0 1 2.606-1.65 7.98 7.98 0 0 1 3.094-.6c1.225 0 2.356.247 3.394.74A8.34 8.34 0 0 1 13.313 6.6l2.137-2.438L16.5 5.25 14.25 7.8c.412.662.747 1.381 1.004 2.156.255.775.421 1.594.496 2.456h-1.5a9.713 9.713 0 0 0-.384-1.79A8.735 8.735 0 0 0 13.162 9L10.2 12.337 7.125 9.3 2.55 13.875Z"/>
</svg>
